public/assets/icons/white/pilot.svg

<?xml version="1.0" encoding="UTF-8" standalone="no"?>
<svg
   version="1.1"
   viewBox="0 -64 1024 1024"
   width="512"
   height="512"
   id="svg1"
   sodipodi:docname="pilot.svg"
   inkscape:version="1.3.1 (91b66b0783, 2023-11-16)"
   xmlns:inkscape="http://www.inkscape.org/namespaces/inkscape"
   xmlns:sodipodi="http://sodipodi.sourceforge.net/DTD/sodipodi-0.dtd"
   xmlns="http://www.w3.org/2000/svg"
   xmlns:svg="http://www.w3.org/2000/svg">
  <defs
     id="defs1" />
  <sodipodi:namedview
     id="namedview1"
     pagecolor="#ffffff"
     bordercolor="#000000"
     borderopacity="0.25"
     inkscape:showpageshadow="2"
     inkscape:pageopacity="0.0"
     inkscape:pagecheckerboard="0"
     inkscape:deskcolor="#d1d1d1"
     inkscape:zoom="1.5742188"
     inkscape:cx="256"
     inkscape:cy="255.68238"
     inkscape:window-width="1920"
     inkscape:window-height="1009"
     inkscape:window-x="3832"
     inkscape:window-y="-8"
     inkscape:window-maximized="1"
     inkscape:current-layer="svg1" />
  <g
     transform="matrix(1 0 0 -1 0 960)"
     id="g1"
     style="fill:#ffffff">
    <path
       fill="currentColor"
       d="M359 499v-37q-12 -6 -24.5 -13.5t-27.5 -17.5q-25 -102 -46.5 -156.5t-21.5 -99.5q21 -9 43 -15.5t45 -12.5l20 76q50 -13 113 -20t98 -5l81 -63q37 6 74 16t72 24q0 44 -21.5 99t-46.5 157q-15 10 -27.5 17.5t-23.5 13.5v37h-40q-22 -24 -51.5 -37.5t-62.5 -13.5 t-62.5 13.5t-51.5 37.5h-5h-34zM614 396l69 -68l-69 -68l-68 68zM631 636q0 -50 -34.5 -85t-84.5 -35v0q-49 0 -84 35t-35 85v0q0 49 35 84t84 35v0q50 0 84.5 -35t34.5 -84v0z"
       id="path1"
       style="fill:#ffffff" />
  </g>
</svg>

<?xml version="1.0" encoding="UTF-8" standalone="no"?>
<svg
   version="1.1"
   viewBox="0 -64 1024 1024"
   width="512"
   height="512"
   id="svg1"
   sodipodi:docname="pilot.svg"
   inkscape:version="1.2.2 (732a01da63, 2022-12-09)"
   xmlns:inkscape="http://www.inkscape.org/namespaces/inkscape"
   xmlns:sodipodi="http://sodipodi.sourceforge.net/DTD/sodipodi-0.dtd"
   xmlns="http://www.w3.org/2000/svg"
   xmlns:svg="http://www.w3.org/2000/svg">
  <defs
     id="defs1" />
  <sodipodi:namedview
     id="namedview1"
     pagecolor="#ffffff"
     bordercolor="#000000"
     borderopacity="0.25"
     inkscape:showpageshadow="2"
     inkscape:pageopacity="0.0"
     inkscape:pagecheckerboard="0"
     inkscape:deskcolor="#d1d1d1"
     inkscape:zoom="1.5742188"
     inkscape:cx="235.99007"
     inkscape:cy="255.99999"
     inkscape:window-width="1920"
     inkscape:window-height="1009"
     inkscape:window-x="-8"
     inkscape:window-y="-8"
     inkscape:window-maximized="1"
     inkscape:current-layer="svg1"
     showgrid="false" />
  <g
     transform="matrix(1,0,0,-1,0,893)"
     id="g1"
     style="fill:#ffffff">
    <path
       fill="currentColor"
       d="M 359,499 V 462 Q 347,456 334.5,448.5 322,441 307,431 282,329 260.5,274.5 239,220 239,175 q 21,-9 43,-15.5 22,-6.5 45,-12.5 l 20,76 q 50,-13 113,-20 63,-7 98,-5 l 81,-63 q 37,6 74,16 37,10 72,24 0,44 -21.5,99 Q 742,329 717,431 702,441 689.5,448.5 677,456 666,462 v 37 H 626 Q 604,475 574.5,461.5 545,448 512,448 479,448 449.5,461.5 420,475 398,499 h -5 z m 255,-103 69,-68 -69,-68 -68,68 z m 17,240 Q 631,586 596.5,551 562,516 512,516 v 0 q -49,0 -84,35 -35,35 -35,85 v 0 q 0,49 35,84 35,35 84,35 v 0 q 50,0 84.5,-35 34.5,-35 34.5,-84 z"
       id="path1"
       style="fill:#ffffff" />
  </g>
</svg>
